X:1
T:Oboe Concerto in A minor, RV 461
T:2nd Mov, Adagio for Flute and Piano
T:Antonio Vivaldi (1678-1741)
%%score 1 { 2 | 3 }
L:1/8
Q:1/4=36
M:3/4
K:C
V:1 treble nm="Flute" snm="Fl."
V:2 treble nm="Harp" snm="Hrp."
V:3 bass 
V:1
 z6 | z6 | z6 | z6 | z6 | z6 | z6 | z6 | z6 |!f! c2 z g/f/ Te2 | d2 z f/e/ Td2 | c2 z e/d/ Tc2 | %12
 (B/4c/4d3/2) (f/4g/4a3/2) (d/4e/4f3/2) | e/(c/4B/4c/)d/ e/f/g/a/ b/c'/e | %14
 d-d/4(e/4^f/4g/4) a/g/f/e/ d/c/B/A/ | B/GB/ d/Bd/ g/dg/ | e/ce/ a/ea/ c'/ac'/ | %17
 ^f/df/ a/da/ f/ca/ | g-g/4(d/4e/4^f/4) g-g/4(d/4e/4f/4) g-g/4(d/4e/4f/4) |!mf! g/(B/A/G/) TA3 G | %20
 G2 z d Td-d/4(c/4d/4e/4) | c2 z c Tc-c/4(B/4c/4d/4) | B2 z B (TBB/4)(A/4B/4c/4) | %23
 A2 z/ A/d/e/ f/d/B/A/ | ^G-G/4(^F/4G/4A/4) B-B/4(A/4B/4c/4) (Td3/2c/4B/4) | %25
 (c/4B/4A3/2) z/ A/(A/c/) ((c/e/))(e/f/) | (f/g/a/)g/ f/e/d/c/ B/(d/e/f/) | %27
 e/c/Tc z/ (c/4d/4)(e/d/4c/4) g/(e/d/c/) | d/B/TB z/ (B/4c/4)(d/c/4B/4) g/(d/c/B/) | %29
 e/c/Tc g/c/Tc g/_B/TB | A2 (3z/ (A/B/ (3c/d/e/ (3f/g/a/)a | %31
 (3(B/A/G/) (3(d/c/B/) (3(f/e/d/) (3(d/c/B/) (3(B/A/G/) (3!tenuto!f/!tenuto!e/!tenuto!d/ | ed c4- | %33
 c/4d/4e/4f/4 g/c/ (Td3 c) | c2 z4 | z6 | z6 | z6 |] %38
V:2
 [EGc][EG][EG][Fc][Gc][Gce] | D[Bd][Bd][GB][GB][Gdf] | E[Gce][Gce][Fc][Gc][ceg_b] | %3
 z [cfa][cfa][Bf][cf][fac'] | !fermata![dgb]6 | B,[B,D][B,D][CG][DG][DGB] | %6
 C[CE][CE][FG][CG][EGc] | B,[B,D][B,D][CG][DG][DGB] | [CE][Gce] [Adf]2 [GBd]2 | %9
 [EGc][Ge][Ge][Ge][Ge][Ge] | [Bd][Bd][Bd][Bd][Bd][Bd] | [Ge][EG][EG][EG][EG][EG] | %12
 [DB][DB][DB][DB][DB][DB] | [EA][EA][EA][EA][EA][EA] | [Ad][Ad][Ad][Ad][Ad][Ad] | %15
 [Bd][Bd][Bd][Bd][Bd][Bd] | [Ge][Ge][Ae][Ae][Ac][Ac] | [^FA][FA][FA][FA][FA][FA] | %18
 [DB][DB][DB][DB][DB][DB] | [DB][DB][^FA][FA][FA][FA] | [DB][DB]!p![Bd][Bd][Bd][Bd] | %21
 [Ac][Ac][Ac][Ac][Ac][Ac] | [GB][GB][GB][GB][GB][GB] | [^FA][FA][FA][FA][=Fd][Fd] | %24
 [^GB][GB][GB][GB][GB][GB] | [Ec][Ec][Ec][Ec][Ec]c | [Bd][Bd][Bd][Bd][GB][GB] | %27
 [Ec][Ec][Ec][Ec][ce][ce] | [Bd][Bd][Bd][Bd][GB][GB] | [EG][EG][EG][EG][EG][EG] | %30
 [CA][CA][CA][CA][CA]A | [DB][DB][DB][DB][DB]B | [EG][EG][EG][EG][EG][EG] | %33
 [Ge][Ge][Bd][Bd][Bd][Bd] | [EGc][EG][EG][Fc][Gc][Gce] | D[Bd][Bd][GB][GB][Gdf] | %36
 [Gce]2 [Adf]2 [GBd]2 | [EGc]6 |] %38
V:3
 [C,C]2 C,D,E,C, | [G,B,]2 [G,B,][A,C][B,D][G,B,] | [C,G,C]2 C,D,E,C, | [F,A,C]2 F,G,A,F, | G,6 | %5
 G,,2 G,,A,,B,,G,, | [G,,E,]2 C,D,E,C, | G,,2 G,,A,,B,,G,, | G,,C, F,2 G,2 |!p! C,CCCCC | %10
 GG,G,G,G,G, | CCCCCC | G,G,G,G,G,G, | CCCCCC | ^F,F,F,F,F,F, | G,G,G,G,G,G, | CCCCCC | DDDDDD | %18
 G,G,G,G,G,G, | G,G,DDD,D, | G,G,G,G,G,G, | G,G,^F,F,D,D, | G,G,G,G,G,G, | DDDDDD | EEEEEE | %25
 A,A,A,A,A,A, | G,G,G,G,G,G, | G,G,G,G,G,G, | G,G,G,G,G,G, | CCCCCC |[K:bass] F,F,F,F,F,F, | %31
 G,G,G,G,G,G, | CCCCCC | CCG,G,G,G, | [C,C]2 C,D,E,C, | [G,B,]2 [G,B,][A,C][B,D][G,B,] | %36
 [C,C]2 [F,,F,]2 [G,,G,]2 | [C,,C,]6 |] %38

